X:336
T:The Old Home Place
C:Dean Webb - Arranged by David Ogershok
N:Transcribed by David Ogershok
R:bluegrass
L:1/8
Q:1/4=170
M:4/4
K:G
z8 | z2 DE FG A^A | "G"^AB Bd B=A GG | "B7"F^D FA Bc BA | "C"GF GA GE GE | "G"D6 ^AB | 
de =fe d2 DE | =FG FE DB, C^C | "D7"DB cA =F^F =F^F | D8 |: "G"DE GA B4 | "B7"B,^A, B,^D FA BA | 
"C"G2 FG AG EG | "G"D6 ga | bg ab ge de | "D7"=fe d^A BG ED | "G"GG ^A,B, A,B, A,B, | 
|1 G,2 z2 G,B, C^C | D2 z2 [A2F2] [A2F2] | [A6F6] GA | Bd AB GA GF | Gz Bd cB AG | 
Az AB ^c=c ^cd | ee ef gf e^c | dA cG AE =FE | D8 :|2 G,2 z6 | 


